public/img/svg/50450a73.svg

<svg xmlns="http://www.w3.org/2000/svg" viewBox="0 0 274 203.64">
    <g fill="none" fill-rule="evenodd">
        <path fill="#00BFD6" fill-rule="nonzero" d="M168.6 157.43c-47.76 45.59-85.4 43.38-133.17-2.21-45.59-43.52-48-84-2.42-127.55 47.76-45.59 73.71-25 133.47 3.11 61.88 29.08 47.71 83.13 2.12 126.65z" opacity=".4"/>
        <path fill="#FFF" fill-rule="nonzero" stroke="#000" stroke-linecap="round" stroke-linejoin="round" d="M108.21 155.99l52.88-30.96V64.4l-52.88-30.52"/>
        <path fill="#CAC8C8" fill-rule="nonzero" stroke="#000" stroke-linecap="round" stroke-linejoin="round" d="M108.21 33.88L55.33 64.4v58.68a4.12 4.12 0 0 0 2.06 3.57L108.21 156"/>
        <path stroke="#000" stroke-linecap="round" stroke-linejoin="round" d="M159.71 65.17l-51.5 29.74-51.5-29.74M108.21 94.93v61.06M108.21 92.77v14.44"/>
        <path fill="#77787B" fill-rule="nonzero" d="M133.11 108.28c2.45-1.41 4.41-.27 4.41 2.57v8.24a9.47 9.47 0 0 1-4.38 7.59l-8.08 4.67v-4l7.09-4.09A4.42 4.42 0 0 0 134 120v-6.24c0-1-.85-1.42-1.86-.83L125 117v-4.06l8.11-4.66z"/>
        <path fill="#EF5662" fill-rule="nonzero" d="M148.73 99.26l-6.61 13.03 6.66 5.37-4.58 2.65-6.66-5.37 6.61-13.03z"/>
        <path fill="#CAC8C8" fill-rule="nonzero" stroke="#000" stroke-linecap="round" stroke-linejoin="round" d="M50.53 61.21v13.47l57.68 33.07V81.89z"/>
        <path fill="#FFF" fill-rule="nonzero" stroke="#000" stroke-linecap="round" stroke-linejoin="round" d="M165.89 61.21v13.47l-57.68 33.07V87.38l50.82-27.47z"/>
        <path fill="#F2F2F2" fill-rule="nonzero" stroke="#000" stroke-linecap="round" stroke-linejoin="round" d="M165.89 60.86l-57.68 33.07-57.68-33.07L106.16 29a4.12 4.12 0 0 1 4.1 0l55.63 31.86z"/>
        <path fill="#FFF" fill-rule="nonzero" stroke="#000" stroke-linecap="round" stroke-linejoin="round" d="M76.46 139.62l39.83 2.55a7.48 7.48 0 1 0 0-14.96h-.85a59.28 59.28 0 0 1-32.88-10 33.58 33.58 0 0 0-18.63-5.64h-16.4l.7 35.78 44 14.73a20.77 20.77 0 0 0 14.52-.5l61.31-25.35a7.22 7.22 0 0 0 3.79-9.71 7.22 7.22 0 0 0-9.24-3.67L122.54 139"/>
        <rect width="14.08" height="44.56" x="34.14" y="107.02" fill="#F2F2F2" fill-rule="nonzero" stroke="#000" stroke-linecap="round" stroke-linejoin="round" rx="5.53"/>
        <circle cx="41.45" cy="142.65" r="2.5" fill="#CCC" fill-rule="nonzero" stroke="#000"/>
    </g>
</svg>

<svg id="a00bfe12-dbb0-49b2-a9c0-e1ac6f64ae9e" data-name="Layer 1" xmlns="http://www.w3.org/2000/svg" width="207.96" height="189.64" viewBox="0 0 207.96 189.64"><defs><style>.bad6e827-fbf7-4779-9d57-1fcd0a323feb{fill:#00bfd6;opacity:0.4;isolation:isolate;}.a0dd1dd3-7c32-4a48-9d1f-26fc71149c99{fill:#fff;}.a0dd1dd3-7c32-4a48-9d1f-26fc71149c99,.a573e0da-164c-451b-be1e-aa3a110bc623,.a76753d8-b48b-4c9f-b197-b5c586a21e05,.bec65c23-c0cd-47c7-9f5d-734ca641fb04,.f3dbb87b-133c-4876-916d-77ad33374e3f{stroke:#000;}.a0dd1dd3-7c32-4a48-9d1f-26fc71149c99,.a573e0da-164c-451b-be1e-aa3a110bc623,.a76753d8-b48b-4c9f-b197-b5c586a21e05,.bec65c23-c0cd-47c7-9f5d-734ca641fb04{stroke-linecap:round;stroke-linejoin:round;}.a573e0da-164c-451b-be1e-aa3a110bc623{fill:#cac8c8;}.bec65c23-c0cd-47c7-9f5d-734ca641fb04{fill:none;}.a76753d8-b48b-4c9f-b197-b5c586a21e05{fill:#f2f2f2;}.f3dbb87b-133c-4876-916d-77ad33374e3f{fill:#ccc;}</style></defs><path class="bad6e827-fbf7-4779-9d57-1fcd0a323feb" d="M168.6,157.43C120.84,203,83.2,200.81,35.43,155.22c-45.59-43.52-48-84-2.42-127.55,47.76-45.59,73.71-25,133.47,3.11C228.36,59.86,214.19,113.91,168.6,157.43Z" transform="translate(-0.01 -0.9)"/><path class="a0dd1dd3-7c32-4a48-9d1f-26fc71149c99" d="M108.21,156l52.88-31V64.4L108.21,33.88" transform="translate(-0.01 -0.9)"/><path class="a573e0da-164c-451b-be1e-aa3a110bc623" d="M108.21,33.88,55.33,64.4v58.68a4.12,4.12,0,0,0,2.06,3.57L108.21,156" transform="translate(-0.01 -0.9)"/><path class="bec65c23-c0cd-47c7-9f5d-734ca641fb04" d="M159.71,65.17l-51.5,29.74L56.71,65.17m51.5,29.76V156m0-63.22v14.44" transform="translate(-0.01 -0.9)"/><path class="a573e0da-164c-451b-be1e-aa3a110bc623" d="M50.53,61.21V74.68l57.68,33.07V81.89Z" transform="translate(-0.01 -0.9)"/><path class="a0dd1dd3-7c32-4a48-9d1f-26fc71149c99" d="M165.89,61.21V74.68l-57.68,33.07V87.38L159,59.91Z" transform="translate(-0.01 -0.9)"/><path class="a76753d8-b48b-4c9f-b197-b5c586a21e05" d="M165.89,60.86,108.21,93.93,50.53,60.86,106.16,29a4.11,4.11,0,0,1,4.1,0Z" transform="translate(-0.01 -0.9)"/><path class="a0dd1dd3-7c32-4a48-9d1f-26fc71149c99" d="M76.46,139.62l39.83,2.55a7.48,7.48,0,0,0,0-15h-.86a59.21,59.21,0,0,1-32.88-10,33.58,33.58,0,0,0-18.63-5.64H47.53l.7,35.78,44,14.73a20.75,20.75,0,0,0,14.52-.5l61.31-25.35A7.22,7.22,0,0,0,172,126.8l-.12-.28a7.21,7.21,0,0,0-9.24-3.67L122.54,139" transform="translate(-0.01 -0.9)"/><rect class="a76753d8-b48b-4c9f-b197-b5c586a21e05" x="34.13" y="106.12" width="14.08" height="44.56" rx="5.53"/><circle class="f3dbb87b-133c-4876-916d-77ad33374e3f" cx="41.44" cy="141.75" r="2.5"/></svg>
